src/assets/icons/film.svg

<svg widh="100%" height="100%" viewBox="0 0 24 24" fill="current"
  xmlns="http://www.w3.org/2000/svg">
  <path fill-rule="evenodd" clip-rule="evenodd" d="M23.3131 3.84003C23.6925 3.84003 24 4.14559 24 4.52211V19.7179C24 20.0947 23.6923 20.4 23.3131 20.4H0.686933C0.307467 20.4 0 20.0945 0 19.7179V4.52211C0 4.14559 0.307467 3.84003 0.686933 3.84003H23.3131ZM3.2808 18.8233C3.47653 18.8233 3.63493 18.6657 3.63493 18.4716H3.6352V16.8893C3.6352 16.6949 3.47653 16.5377 3.28107 16.5377H1.68747C1.492 16.5377 1.33333 16.6952 1.33333 16.8893V18.4716C1.33333 18.6657 1.492 18.8233 1.68747 18.8233H3.2808ZM3.2808 15.1163C3.47653 15.1163 3.63493 14.9588 3.63493 14.7647H3.6352V13.1823C3.6352 12.988 3.47653 12.8307 3.28107 12.8307H1.68747C1.492 12.8307 1.33333 12.9882 1.33333 13.1823V14.7647C1.33333 14.9588 1.492 15.1163 1.68747 15.1163H3.2808ZM3.2808 11.4094C3.47653 11.4094 3.63493 11.2518 3.63493 11.0577H3.6352V9.47538C3.6352 9.28103 3.47653 9.12375 3.28107 9.12375H1.68747C1.492 9.12375 1.33333 9.2813 1.33333 9.47538V11.0577C1.33333 11.2518 1.492 11.4094 1.68747 11.4094H3.2808ZM3.2808 7.7024C3.47653 7.7024 3.63493 7.54486 3.63493 7.35077H3.6352V5.76843C3.6352 5.57408 3.47653 5.4168 3.28107 5.4168H1.68747C1.492 5.4168 1.33333 5.57435 1.33333 5.76843V7.35077C1.33333 7.54486 1.492 7.7024 1.68747 7.7024H3.2808ZM22.3125 18.8233C22.508 18.8233 22.6667 18.6657 22.6667 18.4716V16.8893C22.6667 16.6949 22.508 16.5377 22.3125 16.5377H20.7189C20.5232 16.5377 20.3648 16.6952 20.3648 16.8893V18.4716C20.3648 18.6657 20.5235 18.8233 20.7189 18.8233H22.3125ZM22.3125 15.1163C22.508 15.1163 22.6667 14.9588 22.6667 14.7647V13.1823C22.6667 12.988 22.508 12.8307 22.3125 12.8307H20.7189C20.5232 12.8307 20.3648 12.9882 20.3648 13.1823V14.7647C20.3648 14.9588 20.5235 15.1163 20.7189 15.1163H22.3125ZM22.3125 11.4094C22.508 11.4094 22.6667 11.2518 22.6667 11.0577V9.47538C22.6667 9.28103 22.508 9.12375 22.3125 9.12375H20.7189C20.5232 9.12375 20.3648 9.2813 20.3648 9.47538V11.0577C20.3648 11.2518 20.5235 11.4094 20.7189 11.4094H22.3125ZM22.3125 7.7024C22.508 7.7024 22.6667 7.54486 22.6667 7.35077V5.76843C22.6667 5.57408 22.508 5.4168 22.3125 5.4168H20.7189C20.5232 5.4168 20.3648 5.57435 20.3648 5.76843V7.35077C20.3648 7.54486 20.5235 7.7024 20.7189 7.7024H22.3125Z" />
</svg>

<svg xmlns="http://www.w3.org/2000/svg" fill="currentColor" viewBox="0 0 24 24">
  <path fill-rule="evenodd" d="M23.313 3.84c.38 0 .687.306.687.682v15.196a.685.685 0 0 1-.687.682H.687A.685.685 0 0 1 0 19.718V4.522c0-.376.307-.682.687-.682h22.626ZM3.281 18.823a.353.353 0 0 0 .354-.351v-1.583a.353.353 0 0 0-.354-.351H1.687a.353.353 0 0 0-.354.351v1.583c0 .194.159.351.354.351h1.594Zm0-3.707a.353.353 0 0 0 .354-.351v-1.583a.353.353 0 0 0-.354-.351H1.687a.353.353 0 0 0-.354.351v1.583c0 .194.159.351.354.351h1.594Zm0-3.707a.353.353 0 0 0 .354-.351V9.475a.353.353 0 0 0-.354-.351H1.687a.353.353 0 0 0-.354.351v1.583c0 .194.159.351.354.351h1.594Zm0-3.707a.353.353 0 0 0 .354-.351V5.768a.353.353 0 0 0-.354-.351H1.687a.353.353 0 0 0-.354.351v1.583c0 .194.159.351.354.351h1.594Zm19.032 11.121a.353.353 0 0 0 .354-.351v-1.583a.353.353 0 0 0-.355-.351H20.72a.353.353 0 0 0-.354.351v1.583c0 .194.159.351.354.351h1.593Zm0-3.707a.353.353 0 0 0 .354-.351v-1.583a.353.353 0 0 0-.355-.351H20.72a.353.353 0 0 0-.354.351v1.583c0 .194.159.351.354.351h1.593Zm0-3.707a.353.353 0 0 0 .354-.351V9.475a.353.353 0 0 0-.355-.351H20.72a.353.353 0 0 0-.354.351v1.583c0 .194.159.351.354.351h1.593Zm0-3.707a.353.353 0 0 0 .354-.351V5.768a.353.353 0 0 0-.355-.351H20.72a.353.353 0 0 0-.354.351v1.583c0 .194.159.351.354.351h1.593Z" clip-rule="evenodd"/>
</svg>
